icon-themes/sifr_svg/cmd/lc_calloutshapes.svg

<svg viewBox="0 0 24 24" xmlns="http://www.w3.org/2000/svg"><g fill="#555753"><path d="m3 3v13h2v4.292969l4-4.292969h12v-13z" opacity=".35"/><path d="m4 2c-1.108 0-2 .892-2 2v11c0 1.108.892 2 2 2v5h1l4.359375-5h10.640625c1.108 0 2-.892 2-2v-11c0-1.108-.892-2-2-2zm0 2h16v11h-12l-2 3v-3h-2z"/></g></svg>

<svg xmlns="http://www.w3.org/2000/svg" viewBox="0 0 24 24">
  <path
     style="opacity:0.35;fill:#555753"
     d="m 3,3 v 13 h 2 v 4.292969 L 9,16 H 21 V 3 Z"
     />
  <path
     style="fill:#555753"
     d="M 4,2 C 2.892,2 2,2.892 2,4 v 11 c 0,1.108 0.892,2 2,2 v 5 H 5 L 9.359375,17 H 20 c 1.108,0 2,-0.892 2,-2 V 4 C 22,2.892 21.108,2 20,2 Z M 4,4 H 20 V 15 H 8 L 6,18 V 15 H 4 Z"
     />
</svg>
